X:1
T:Lilla Rolig
R:Lngdans
Z:Transkription gjord av Jonas Brunskog, 23/6 2008
O:Mnsters, Dderhultsvik, Smland
S:efter Sven Lorenz Bruun
N:Folkmusikkommissionens notsamling, Bild: 53 Volym: M 188 Datering: -1837. Nummer 3
M:3/8
L:1/8
K:G
D|:(GAB)|(AFD)|(GAB)|c2 A|(GAB)|(ced)|(cBA)|[1 G2 D:|[2 G2 d|]
|:g(g/2a/2g/2f/2)|eed|eef|g2 d|g(g/2a/2g/2f/2)|eed|e(e/2g/2)(f/2a/2)|[1 g2 d:|[2 g2 z|]
